X:61
T:Star of Munster
S:Bernie Waugh
R:Reel
M:4/4
L:1/8
K:A minor
ed|:\
"Am"cBAc "Em"BAGB|"F"AGE^F "G"GED=F|"Am"EAAG ABcd|"Em"e2a^f g=fed|
"Dm"cBAc "Em"BAGB|"F"AGE^F "G"GED=F|"Am"EAAB cded|"G"cABG "Am"A4:|
|:\
"A"a2ab ageg|agbg age^f|"C"g^fga gfef|gea^f ged=f|
"D"eaab ageg|agbg age^f|"Em"g2ge "F"a2ae|"G"b2ba gfed:|


